X:1
T:Title
%%score 1 2 3 4
L:1/8
M:4/4
K:E
V:1 treble nm="Church Organ, Church Organ"
V:2 treble nm="French Horn, French Horn"
V:3 bass nm="Trombone, Trombone"
V:4 bass nm="Tuba, Tuba"
V:1
 EF G2 G2 GF | AG B4 G2 | G2 A2- A/ z/ G AB | dc B6 | A2 G2 G2 GG | AB c2 e2 z A | %6
w: By~Adam~Geibel * * * * *||||||
 Bc B2- B/ z/ B BA | FG E6 | z8 | z2 e2 e>e d2 | d2 e2 B2 c2 | B2 B2 ^A2 B2 | ^A2 G2- G/ z/ G GG | %13
w: |||||||
 AB c2 e2 z A | Bc B2 B2 BA | FG E6 |] %16
w: |||
V:2
 E2 E2 E2 ED | FE E6 | E2 F2- F/ z/ ^E FD | AA G6 | D2 E2 E2 EE | EE E4 z E | EE E2- E/ z/ E D2 | %7
w: Oh,~ Christ mas~ bells,~ your~|sweet est~ strain~|Ring~ out~ * to day~ o'er~|hill~ and~ plain,~|In~ glad~ re mem brance~|of~ the~ birth~ Of~|Him~ who~ came~ * to~ dwell~|
 D2 E6 | z8 | z2 G2 G>G F2 | F2 E2 E2 E2 | E2 E2 E2 D2 | D2 E2- E/ z/ E EE | EE E4 z E | %14
w: on~ earth.~||Our~ joy~ pro claim.~|Peal~ forth!~ ex ult|ing~ in~ the~ name~|Of~ Je * sus,~ o'er~ whom~|an gels~ sang~ Till~|
 EE E2 E2 D2 | D2 E6 |] %16
w: Ju dah's~ moun tain~ echo|es~ rang.~|
V:3
 G,A, B,2 B,2 B,B, | B,B, G,4 B,2 | B,2 B,2- B,/ z/ B, B,B, | DD E4 B,2 | %4
 B,2[K:bass] B,2 B,2 B,B, | A,G, A,2 C2 z A, | G,=G, ^G,2- G,/ z/ G, F,2 | A,B, G,6 | %8
 z2 B,2 B,>B, B,2- | B,2 B,4 B,2 | B,2 B,2 B,2 A,2 | B,2 C2 C2 B,2 | B,2 B,2- B,/ z/ B, B,B, | %13
 A,G, A,2 C2 z A, | G,=G, ^G,2 G,2 F,2 | A,B, G,6 |] %16
V:4
 E,2 E,2 E,2 E,E, | E,E, E,6 | E,2 B,,2- B,,/ z/ B,, B,,B,, | B,,B,, E,6 | B,,2 E,2 E,2 E,=D, | %5
 C,B,, A,,4 z C, | B,,^A,, B,,2- B,,/ z/ B,, B,,2 | B,,2 E,6 | z2 B,2 B,>B, B,2- | B,2 B,4 B,2 | %10
 A,2 G,2 G,2 A,2 | G,2 F,2 F,2 B,,2 | B,,2 E,2- E,/ z/ E, E,=D, | C,B,, A,,4 z C, | %14
 B,,^A,, B,,2 B,,2 B,,2 | B,,2 E,6 |] %16

